svgs/solid/square-n.svg

<svg xmlns="http://www.w3.org/2000/svg" viewBox="0 0 448 512"><!--! Font Awesome Pro 6.1.2 by @fontawesome - https://fontawesome.com License - https://fontawesome.com/license (Commercial License) Copyright 2022 Fonticons, Inc. --><path d="M384 32H64C28.65 32 0 60.65 0 96v320c0 35.35 28.65 64 64 64h320c35.35 0 64-28.65 64-64V96C448 60.65 419.3 32 384 32zM320 360c0 10.5-6.828 19.78-16.84 22.91C300.8 383.6 298.4 384 296 384c-7.719 0-15.17-3.734-19.73-10.34L176 228.8V360C176 373.3 165.3 384 152 384S128 373.3 128 360v-208c0-10.5 6.828-19.78 16.84-22.91c10.02-3.062 20.94 .6094 26.89 9.25L272 283.2V152C272 138.8 282.8 128 296 128S320 138.8 320 152V360z"/></svg>

<svg xmlns="http://www.w3.org/2000/svg" viewBox="0 0 448 512"><!--! Font Awesome Pro 6.2.0 by @fontawesome - https://fontawesome.com License - https://fontawesome.com/license (Commercial License) Copyright 2022 Fonticons, Inc. --><path d="M64 32C28.7 32 0 60.7 0 96V416c0 35.3 28.7 64 64 64H384c35.3 0 64-28.7 64-64V96c0-35.3-28.7-64-64-64H64zM171.7 138.3L272 283.2V152c0-13.3 10.7-24 24-24s24 10.7 24 24V360c0 10.5-6.8 19.8-16.8 22.9s-20.9-.6-26.9-9.2L176 228.8V360c0 13.3-10.7 24-24 24s-24-10.7-24-24V152c0-10.5 6.8-19.8 16.8-22.9s20.9 .6 26.9 9.2z"/></svg>
